#-----------------------------------------
# Jan 2017
# kn00t 2017 July


d1 $ sound "arpy*8" # vowel "a i a i a i e o o o o o o o" # pan sine 

d2 $ sound "bd*2 sn"

d3 $  slow 4 $ sound "arp*8 arp"

hush

