# =============================================================================

bps (130/60)

d1 $ striate 1 $ loopAt 4 $ sound "songzip:5"

d1 $ every 2 (density 2) $ degradeBy 0.5 $ sound "songzip:0"
|=| cut "1"
|=| gain "1.2"
|=| speed "{1 1 1 1 2}%4"

# =============================================================================

bps(130/60)

d1 $  loopAt 8 $ sound "realdrums" 

d2 $ sound "bd sn*2,ch/3" 

hush

d1 $ slow 4 $ sound "realdrums:4"


