http://lurk.org/groups/tidal/messages/topic/7Ch0Kvo1g8G1J970c7xNZO
http://lurk.org/groups/tidal/messages/topic/5sSoCdHYso1cYoPwSuCSSb/

https://github.com/JeffreyBenjaminBrown/play/blob/master/tidal/mysteries/scale-pattern-question.tidal

https://github.com/JeffreyBenjaminBrown/play/blob/master/haskell-music-cover-letter.md

https://github.com/JeffreyBenjaminBrown/play/blob/master/tidal/init.hs


d1 $ sound "bd sn" "1 2 3 4"

d1 $ silence

hush
