-- https://tidalcycles.org/patterns.html
-- by kn00t 2017/03

d2 $ sound "[bd bd bd, sn cp sn cp]"

d2 $ silence

d3 $ gain "1.2 0.8 0.5 0.7" # sound "can"

d1 $ every 4 (density 2) $ every 4 (rev) $ every 8 (slow 2)  

d1 $ every 2 (rev) $ sound "[bd*2, sn hc sn hc, arpy arpy, ho]" 
   # gain "[1 0.8 1 1.2]/4"

d3 $ every 2 (|+| speed "1") $ sound "arpy*4" |=| speed "1" 

d1 $  every 2 (|+| up "4") $ sound "arpy*4" |=| up "0 2 4 5"

hush
