-- Fun with the RhythmTrak RT-223
-- Drum channel is 10 ---> Tidal: 9
-- Bass channel is 9  ---> Tidal: 8

d1$ slow 4 $ plyWith 4 (# n (run 5))  $ n "[64 65?0.5, [60 66] 20 22 [32,33,34,35,36]*2]*2" # sound "midi" # midichan 9

hush

d2$ n "-10" # s "midi" # midichan 8

d3$ plyWith "<1 0 1 [3 4] 2>" (|+ n 5)  $ s "midi" # midichan 8

d4$ note (scale "minor" $ snowball 3 (-) (fast 2) $ (run 4))  # s "midi" # midichan 8
